assets/icons/mail/new-filled.svg

<?xml version="1.0" encoding="UTF-8" standalone="no"?>
<svg
   viewBox="0 0 24 24"
   height="24"
   width="24"
   version="1.1"
   id="svg4"
   sodipodi:docname="new.svg"
   inkscape:version="1.2 (1:1.2.1+202207142221+cd75a1ee6d)"
   xmlns:inkscape="http://www.inkscape.org/namespaces/inkscape"
   xmlns:sodipodi="http://sodipodi.sourceforge.net/DTD/sodipodi-0.dtd"
   xmlns="http://www.w3.org/2000/svg"
   xmlns:svg="http://www.w3.org/2000/svg">
  <defs
     id="defs8" />
  <sodipodi:namedview
     id="namedview6"
     pagecolor="#ffffff"
     bordercolor="#666666"
     borderopacity="1.0"
     inkscape:pageshadow="2"
     inkscape:pageopacity="0.0"
     inkscape:pagecheckerboard="0"
     showgrid="true"
     inkscape:snap-page="true"
     inkscape:zoom="19.79899"
     inkscape:cx="10.960155"
     inkscape:cy="10.404571"
     inkscape:window-width="1920"
     inkscape:window-height="1043"
     inkscape:window-x="0"
     inkscape:window-y="0"
     inkscape:window-maximized="1"
     inkscape:current-layer="svg4"
     inkscape:showpageshadow="2"
     inkscape:deskcolor="#d1d1d1">
    <inkscape:grid
       type="xygrid"
       id="grid6" />
  </sodipodi:namedview>
  <path
     id="path291"
     style="color:#000000;fill:#808080;fill-opacity:1"
     d="M 4.7871094 5 C 4.1101678 5.00559 3.5365037 5.0481532 3.0273438 5.3027344 C 2.6879032 5.4724544 2.3973372 5.7651704 2.2304688 6.140625 C 2.0635995 6.5160796 2 6.9583369 2 7.5 L 2 10 L 2 15 L 2 17.5 C 2 18.041661 2.0635991 18.483919 2.2304688 18.859375 C 2.3973372 19.234831 2.6879032 19.527545 3.0273438 19.697266 C 3.5365037 19.951846 4.1101678 19.9944 4.7871094 20 C 5.0127562 20.0019 5.2500015 20 5.5 20 L 14 20 L 14 13 L 22 13 L 22 10 L 22 7.5 C 22 6.9583369 21.9364 6.5160796 21.769531 6.140625 C 21.602661 5.7651704 21.312099 5.4724544 20.972656 5.3027344 C 20.293777 4.9632938 19.499993 5 18.5 5 L 5.5 5 C 5.2500015 5 5.0127562 4.99814 4.7871094 5 z M 5.015625 8 L 12 12.216797 L 18.988281 8 L 19.34375 8.5273438 L 12 13.822266 L 4.6582031 8.546875 L 5.015625 8 z " />
  <path
     id="rect287"
     style="fill:#808080;stroke:none;stroke-width:2;stroke-linejoin:round;stroke-dasharray:3, 3"
     d="m 18,14 v 3 h -3 v 1 h 3 v 3 h 1 v -3 h 3 v -1 h -3 v -3 z" />
</svg>

<svg height="24" width="24" xmlns="http://www.w3.org/2000/svg"><path style="color:#000;fill:gray;fill-opacity:1" d="M4.787 5c-.677.006-1.25.048-1.76.303-.34.17-.63.462-.797.838C2.064 6.516 2 6.958 2 7.5v10c0 .542.064.984.23 1.36.167.375.458.668.797.837.51.255 1.083.297 1.76.303.226.002.463 0 .713 0H14v-7h8V7.5c0-.542-.064-.984-.23-1.36a1.72 1.72 0 0 0-.797-.837C20.293 4.963 19.5 5 18.5 5h-13c-.25 0-.487-.002-.713 0zm.229 3L12 12.217 18.988 8l.356.527L12 13.822 4.658 8.547 5.016 8z"/><path style="fill:gray;stroke:none;stroke-width:2;stroke-linejoin:round;stroke-dasharray:3,3" d="M18 14v3h-3v1h3v3h1v-3h3v-1h-3v-3z"/></svg>
